X:30
T:Nymph. THO5.030, The
M:2/4
L:1/8
B:Thompson's Complete Collection of 200 Favourite Dances Vol.5
F:https://www.libraryofdance.org/manuals/1780c-Thompson-Compleat-5.pdf
Z:vmp. Peter Dunk 2024
Q:1/4=120
K:C
cc/B/ cG|cege|fdcB|(c/B/c/d/) cG|
cc/B/ cG|cege|fdcB|c2-c2:|
|:(fe)e2|(dc) c2|Bcde|(f/g/f/e/) d2|
(fe) e2|(dc) c2|df (e/d/c/B/)|c2-c2:|
|:!p!e3g|c3e|(^cd)(fd)|(=cBAG)|
(c3 d/e/)|f3e|ed(cB)|c2-c2:|
W:
W:Turn right hands quite round and cast off ./.
W:then turn left hands ./:
W:set 3&3 top and bottom and turn your Partner :/.
W:set 3&3 sideways and turn yout Partner :/:
W:hands 6 round ./:.
W:same back again :./:

